X:1
T:Since I Found My Savior
T:Since I Found My Savior
T:John Robson Sweney
T:Eliza Edmunds Hewitt, 1890
T:Public Domain Courtesy of the Cyber Hymnal™
C:John Robson Sweney
Z:Public Domain
Z:Courtesy of the Cyber Hymnal™
%%score ( 1 2 ) ( 3 4 )
L:1/8
Q:1/4=100
M:3/4
K:Ab
V:1 treble 
V:2 treble 
V:3 bass 
V:4 bass 
V:1
 [CE]2 | [Ec]>[DB] [CA]3 [Ec] | (3(BA)[DF] [CE]3 z | [CA]3 [CE] [EA][Ec] | [Ec]2 [EB]3 [CE] | %5
w: 1.~Life|wears a dif- ferent|face * to me,|Since I found my|Sav- ior; Rich|
w: 2.~He|sought me in His|won- * drous love,|So I found my|Sav- ior; He|
w: 3.~The|pass- ing clouds may|in- * ter- vene,|Since I found my|Sav- ior; But|
w: 4~A|strong hand kind- ly|holds * my own,|Since I found my|Sav- ior; It|
 [Ec]>[DB] [CA]3 [Ec] | (3(BA)[DF] [CE]3 [EA] | [FA]>[_FB] [Ec]3 [EA] | [EB]2 [EA]3 z || %9
w: mer- cy at the|cross * I see, My|dy- ing, liv- ing|Sav- ior.|
w: brought sal- va- tion|from * a- bove, My|dear, al- might- y|Sav- ior.|
w: He is with me,|though * un- seen, My|ev- er pre- sent|Sav- ior.|
w: leads me on- ward|to * the throne, Oh,|there I’ll see my|Sav- ior!|
"^Refrain" [EB]>[Ec] [Ed][DF] [DG][DF] | ([C-E]2 [CA]3) z | [Ec]>[Ed] [Ee][Ec] [EB][=DA] | %12
w: |||
w: Gold- en sun- beams round me|play; *|Je- sus turns my night to|
w: |||
w: |||
 (B4 =B2) | [Ec]>[Ec] [Ec]3 [EA] | (3(BA)[DF] [CE]3 z | [EA]>[FB] [Ec]3 [EA] | [EB]2 [EA]2 |] %17
w: |||||
w: day; *|Heav- en seems not|far * a- way,|Since I found my|Sav- ior.|
w: |||||
w: |||||
V:2
 x2 | x6 | F2 x4 | x6 | x6 | x6 | F2 x4 | x6 | x6 || x6 | x6 | x6 | E6 | x6 | F2 x4 | x6 | x4 |] %17
V:3
 [A,,A,]2 | [A,,A,]>[A,,E,] [A,,E,]3 [A,,A,] | (3:2:2[D,A,]2 [F,A,] A,3 z | %3
 [A,,E,]3 [A,,A,] [C,A,][A,,A,] | [E,A,]2 [E,G,]3 [A,,A,] | [A,,A,]>[A,,E,] [A,,E,]3 [A,,A,] | %6
 (3:2:2[D,A,]2 [F,A,] A,3 [C,A,] | [D,A,]>[D,A,] [E,A,]3 [E,C] | [E,D]2 [A,,C]3 z || %9
 [E,G,]>[E,A,] [E,B,][E,A,] [E,B,][E,G,] | ([A,,-A,]2 [A,,E,]3) z | %11
 A,>[A,B,] [A,C]A, [G,B,][F,B,] | [E,G,]6 | [A,,A,]>[A,,A,] [A,,A,]3 [C,A,] | %14
 (3:2:2[D,A,]2 [F,A,] [E,A,]3 z | [C,A,]>[D,A,] [E,A,]3 [E,C] | [E,D]2 [A,,C]2 |] %17
V:4
 x2 | x6 | x2 A,3 x | x6 | x6 | x6 | x2 A,3 x | x6 | x6 || x6 | x6 | A,3/2A, x7/2 | x6 | x6 | x6 | %15
 x6 | x4 |] %17

